X: 37536
T: Sloe, The
R: polka
M: 2/4
K: Dmajor
A|:dA de|f>e dc|BA B/c/d/B/|~AF EA|
dA de|f>e dc|BA Bc|1 d2dA:|2 d2 dA/A/||
|:~BA FA/A/|~BA Fd/d/|dc/c/ cB/B/|BA Ad/d/|
dc/c/ ce/e/|ed df/f/|~fe Bc|1 d2 dA/A/:|2 d2 dA||

